Static/facebook.svg

<svg width="24" height="24" viewBox="0 0 24 24" fill="none" xmlns="http://www.w3.org/2000/svg">
<g clip-path="url(#clip0_652_8630)">
<path d="M12 24C18.6274 24 24 18.6274 24 12C24 5.37258 18.6274 0 12 0C5.37258 0 0 5.37258 0 12C0 18.6274 5.37258 24 12 24Z" fill="#3579EA"/>
<path d="M15.8018 10.5791L15.5604 12.6695C15.5504 12.7649 15.5057 12.8533 15.4348 12.9179C15.3639 12.9825 15.2718 13.0189 15.1759 13.02H12.9941L12.9832 19.2177C12.9839 19.2912 12.9557 19.362 12.9047 19.4148C12.8536 19.4676 12.7839 19.4982 12.7104 19.5H10.5C10.4632 19.5 10.4269 19.4926 10.393 19.4782C10.3592 19.4639 10.3287 19.4428 10.3032 19.4163C10.2777 19.3898 10.2578 19.3584 10.2448 19.3241C10.2318 19.2897 10.2258 19.2531 10.2273 19.2164V13.02H8.5909C8.5395 13.0195 8.48871 13.0088 8.44144 12.9887C8.39416 12.9685 8.35132 12.9392 8.31535 12.9025C8.27939 12.8658 8.25101 12.8223 8.23184 12.7746C8.21267 12.7269 8.20308 12.6759 8.20362 12.6245L8.19544 10.5341C8.19472 10.4825 8.20417 10.4313 8.22324 10.3834C8.24231 10.3355 8.27064 10.2918 8.3066 10.2548C8.34256 10.2178 8.38546 10.1883 8.43283 10.1679C8.48021 10.1475 8.53114 10.1366 8.58272 10.1359H10.2273V8.11773C10.2273 5.775 11.6182 4.5 13.6582 4.5H15.33C15.3817 4.50053 15.4328 4.51127 15.4803 4.53158C15.5278 4.5519 15.5709 4.5814 15.607 4.6184C15.6431 4.65539 15.6715 4.69915 15.6907 4.74716C15.7099 4.79517 15.7193 4.84649 15.7186 4.89818V6.65727C15.7193 6.70896 15.7099 6.76028 15.6907 6.8083C15.6715 6.85631 15.6431 6.90007 15.607 6.93706C15.5709 6.97405 15.5278 7.00355 15.4803 7.02387C15.4328 7.04419 15.3817 7.05492 15.33 7.05545H14.3045C13.1959 7.05545 12.9804 7.60091 12.9804 8.38909V10.1359H15.4173C15.4727 10.1366 15.5273 10.149 15.5776 10.1723C15.6279 10.1957 15.6726 10.2294 15.709 10.2712C15.7453 10.3131 15.7723 10.3622 15.7883 10.4152C15.8043 10.4683 15.8089 10.5241 15.8018 10.5791Z" fill="white"/>
</g>
<defs>
<clipPath id="clip0_652_8630">
<rect width="24" height="24" fill="white"/>
</clipPath>
</defs>
</svg>

<svg xmlns="http://www.w3.org/2000/svg" width="24" height="24" fill="none"><g clip-path="url(#a)"><path fill="#3579EA" d="M12 24c6.627 0 12-5.373 12-12S18.627 0 12 0 0 5.373 0 12s5.373 12 12 12Z"/><path fill="#fff" d="m15.802 10.58-.242 2.09a.391.391 0 0 1-.384.35h-2.182l-.01 6.198a.28.28 0 0 1-.274.282H10.5a.273.273 0 0 1-.273-.284V13.02H8.591a.392.392 0 0 1-.387-.396l-.009-2.09a.393.393 0 0 1 .388-.398h1.644V8.118c0-2.343 1.391-3.618 3.431-3.618h1.672a.393.393 0 0 1 .389.398v1.76a.392.392 0 0 1-.389.397h-1.025c-1.11 0-1.325.546-1.325 1.334v1.747h2.437a.393.393 0 0 1 .385.443Z"/></g><defs><clipPath id="a"><path fill="#fff" d="M0 0h24v24H0z"/></clipPath></defs></svg>
